src/assets/icons/index/time.svg

<svg width="32" height="32" viewBox="0 0 32 32" fill="none" xmlns="http://www.w3.org/2000/svg">
<path d="M4.5 23C2.01869 23 0 25.0187 0 27.5C0 29.9813 2.01869 32 4.5 32C6.98131 32 9 29.9813 9 27.5C9 25.0187 6.98131 23 4.5 23ZM4.5 29.5C3.39719 29.5 2.5 28.6028 2.5 27.5C2.5 26.3972 3.39719 25.5 4.5 25.5C5.60281 25.5 6.5 26.3972 6.5 27.5C6.5 28.6028 5.60281 29.5 4.5 29.5Z" fill="#33D67B"/>
<path d="M16.2187 8.75C15.9575 8.75 15.0652 8.66481 14.0868 8.27594C13.4454 8.021 12.7184 8.33425 12.4634 8.97581C12.2084 9.61738 12.5218 10.3441 13.1633 10.5991C13.7354 10.8265 14.3031 10.9838 14.8126 11.0871V11.25C14.8126 11.9404 15.3722 12.5 16.0626 12.5C16.7529 12.5 17.3126 11.9404 17.3126 11.25V11.0563C18.5154 10.6149 19.3751 9.46756 19.3751 8.125C19.3751 7.27269 18.9967 6.4485 18.337 5.86375C17.7085 5.30675 16.8786 5 16 5C15.3943 5 14.9375 4.73131 14.9375 4.375C14.9375 4.03038 15.2179 3.75 15.5625 3.75C16.0065 3.75 16.5466 3.80025 17.4844 4.165C18.1279 4.41512 18.8523 4.09644 19.1025 3.45306C19.3527 2.80963 19.0339 2.08519 18.3906 1.835C17.99 1.67925 17.6337 1.56469 17.3125 1.48V1.25C17.3125 0.559625 16.7529 0 16.0625 0C15.3721 0 14.8125 0.559625 14.8125 1.25V1.34162C13.4505 1.6785 12.4375 2.91044 12.4375 4.375C12.4375 6.15656 13.9691 7.5 16 7.5C16.4743 7.5 16.875 7.78625 16.875 8.125C16.875 8.46375 16.5744 8.75 16.2187 8.75Z" fill="#33D67B"/>
<path d="M16.0625 14.375C15.3721 14.375 14.8125 14.9346 14.8125 15.625V19.4375C14.8125 20.1279 15.3721 20.6875 16.0625 20.6875C16.7529 20.6875 17.3125 20.1279 17.3125 19.4375V15.625C17.3125 14.9346 16.7529 14.375 16.0625 14.375Z" fill="#33D67B"/>
<path d="M16.0625 23C13.5812 23 11.5625 25.0187 11.5625 27.5C11.5625 29.9813 13.5812 32 16.0625 32C18.5438 32 20.5625 29.9813 20.5625 27.5C20.5625 25.0187 18.5438 23 16.0625 23ZM16.0625 29.5C14.9597 29.5 14.0625 28.6028 14.0625 27.5C14.0625 26.3972 14.9597 25.5 16.0625 25.5C17.1653 25.5 18.0625 26.3972 18.0625 27.5C18.0625 28.6028 17.1653 29.5 16.0625 29.5Z" fill="#33D67B"/>
<path d="M27.5 23C25.0187 23 23 25.0187 23 27.5C23 29.9813 25.0187 32 27.5 32C29.9813 32 32 29.9813 32 27.5C32 25.0187 29.9813 23 27.5 23ZM27.5 29.5C26.3972 29.5 25.5 28.6028 25.5 27.5C25.5 26.3972 26.3972 25.5 27.5 25.5C28.6028 25.5 29.5 26.3972 29.5 27.5C29.5 28.6028 28.6028 29.5 27.5 29.5Z" fill="#33D67B"/>
<path d="M8.97637 6.55681C7.34062 6.92375 5.85556 7.84675 4.795 9.15575C3.71806 10.4847 3.125 12.1603 3.125 13.8737V19.5625C3.125 20.2529 3.68463 20.8125 4.375 20.8125C5.06537 20.8125 5.625 20.2529 5.625 19.5625V13.8737C5.625 11.5542 7.26463 9.50287 9.52363 8.99612C10.1973 8.845 10.6208 8.17643 10.4697 7.50281C10.3186 6.82925 9.64987 6.40569 8.97637 6.55681Z" fill="#33D67B"/>
<path d="M26.3125 13.8737V19.5625C26.3125 20.2529 26.8721 20.8125 27.5625 20.8125C28.2529 20.8125 28.8125 20.2529 28.8125 19.5625V13.8737C28.8125 12.1602 28.2194 10.4847 27.1425 9.15569C26.0819 7.84675 24.5969 6.92375 22.9611 6.55675C22.2872 6.40581 21.6189 6.82925 21.4678 7.50281C21.3167 8.17644 21.7402 8.845 22.4139 8.99612C24.6729 9.50294 26.3125 11.5542 26.3125 13.8737Z" fill="#33D67B"/>
</svg>

<?xml version="1.0" encoding="utf-8"?>
<!-- Generator: Adobe Illustrator 24.2.0, SVG Export Plug-In . SVG Version: 6.00 Build 0)  -->
<svg version="1.1" id="Ebene_1" xmlns="http://www.w3.org/2000/svg" xmlns:xlink="http://www.w3.org/1999/xlink" x="0px" y="0px"
	 viewBox="0 0 32 32" style="enable-background:new 0 0 32 32;" xml:space="preserve">
<style type="text/css">
	.st0{fill:#4070C5;}
</style>
<path class="st0" d="M4.5,23C2,23,0,25,0,27.5S2,32,4.5,32S9,30,9,27.5S7,23,4.5,23z M4.5,29.5c-1.1,0-2-0.9-2-2s0.9-2,2-2
	s2,0.9,2,2S5.6,29.5,4.5,29.5z"/>
<path class="st0" d="M16.2,8.7c-0.3,0-1.2-0.1-2.1-0.5C13.4,8,12.7,8.3,12.5,9c-0.3,0.6,0.1,1.4,0.7,1.6c0.6,0.2,1.1,0.4,1.6,0.5
	v0.2c0,0.7,0.6,1.2,1.2,1.2c0.7,0,1.2-0.6,1.2-1.2v-0.2c1.2-0.4,2.1-1.6,2.1-2.9c0-0.9-0.4-1.7-1-2.3C17.7,5.3,16.9,5,16,5
	c-0.6,0-1.1-0.3-1.1-0.6c0-0.3,0.3-0.6,0.6-0.6c0.4,0,1,0.1,1.9,0.4c0.6,0.3,1.4-0.1,1.6-0.7c0.3-0.6-0.1-1.4-0.7-1.6
	c-0.4-0.2-0.8-0.3-1.1-0.4V1.2c0-0.7-0.6-1.2-1.2-1.2c-0.7,0-1.2,0.6-1.2,1.2v0.1c-1.4,0.3-2.4,1.6-2.4,3c0,1.8,1.5,3.1,3.6,3.1
	c0.5,0,0.9,0.3,0.9,0.6S16.6,8.7,16.2,8.7z"/>
<path class="st0" d="M16.1,14.4c-0.7,0-1.2,0.6-1.2,1.2v3.8c0,0.7,0.6,1.2,1.2,1.2c0.7,0,1.2-0.6,1.2-1.2v-3.8
	C17.3,14.9,16.8,14.4,16.1,14.4z"/>
<path class="st0" d="M16.1,23c-2.5,0-4.5,2-4.5,4.5s2,4.5,4.5,4.5s4.5-2,4.5-4.5S18.5,23,16.1,23z M16.1,29.5c-1.1,0-2-0.9-2-2
	s0.9-2,2-2s2,0.9,2,2S17.2,29.5,16.1,29.5z"/>
<path class="st0" d="M27.5,23C25,23,23,25,23,27.5s2,4.5,4.5,4.5s4.5-2,4.5-4.5S30,23,27.5,23z M27.5,29.5c-1.1,0-2-0.9-2-2
	s0.9-2,2-2s2,0.9,2,2S28.6,29.5,27.5,29.5z"/>
<path class="st0" d="M9,6.6C7.3,6.9,5.9,7.8,4.8,9.2c-1.1,1.3-1.7,3-1.7,4.7v5.7c0,0.7,0.6,1.2,1.2,1.2s1.2-0.6,1.2-1.2v-5.7
	c0-2.3,1.6-4.4,3.9-4.9c0.7-0.2,1.1-0.8,0.9-1.5C10.3,6.8,9.6,6.4,9,6.6z"/>
<path class="st0" d="M26.3,13.9v5.7c0,0.7,0.6,1.2,1.2,1.2s1.2-0.6,1.2-1.2v-5.7c0-1.7-0.6-3.4-1.7-4.7c-1.1-1.3-2.5-2.2-4.2-2.6
	c-0.7-0.2-1.3,0.3-1.5,0.9c-0.2,0.7,0.3,1.3,0.9,1.5C24.7,9.5,26.3,11.6,26.3,13.9z"/>
</svg>
